X: 1
T: a Fig For a Kiss   [Em]
C: trad.
O: Ireland
%D:
R: slip-jig
S: Fiddle Hell Online 2022-4-5 handout for Tom Morley's Irish Slow Jam
Z: 2022 John Chambers <jc:trillian.mit.edu>
M: 9/8
L: 1/8
K: Em
 "^A"|: "Em"vG2B E2B BAG | "D"uF2A D2A AGF | "Em"G2B E2B BAG | "G"(uB/c/dB) "D"AGF "Em"E3 :|
"^B1"[| "Em"(vg2e) (g2e) edB | "D"(uf2d) d^cd fed | "Em"(g2e) (g2e) edc | "G"udBG "D"GBd "Em"ue2uf |]
"^B2"[|  "C"(vg2e) (g2e) edB | "D"(uf2d) d^cd uf2ud | "C"gfe fed edB | "G"(uB/c/dB) "D"AGF "Em"E3 |]
